!!!!SEGMENT: Ric2033-Non_turbetur_cor_vestrum
!!!id: Ric2033
!!!AGN: Motet
!!!voices: 5
!!!COM: Jean Richafort
!!!OTL: Non turbetur cor vestrum
**kern	**kern	**kern	**kern	**kern
*part5	*part4	*part3	*part2	*part1
*staff5	*staff4	*staff3	*staff2	*staff1
*I"Bassus	*I"Tenor II	*I"Tenor I	*I"Altus	*I"Superius
*I'B.	*I'T. II	*I'T. I	*I'A.	*I'S.
*clefF4	*clefGv2	*clefG2	*clefG2	*clefG2
*k[b-]	*k[b-]	*k[b-]	*k[b-]	*k[b-]
*M2/1	*M2/1	*M2/1	*M2/1	*M2/1
*met(C|)	*met(C|)	*met(C|)	*met(C|)	*met(C|)
=1	=1	=1	=1	=1
!!section: Prima pars: Non turbetur cor vestrum
!!!OMD: Prima pars: Non turbetur cor vestrum
0r	0r	1.e	0r	0r
.	.	2e	.	.
=2	=2	=2	=2	=2
0r	0rG	1a	0r	0r
.	.	1g	.	.
=3	=3	=3	=3	=3
0r	1.A	2.a	0r	0r
.	.	4g	.	.
.	.	4a	.	.
.	.	4b-y	.	.
.	2A	[2cc	.	.
=4	=4	=4	=4	=4
0r	1d	2cc]	0r	1r
.	.	2b-y	.	.
.	1c	2.cc	.	[1a
.	.	4b-y	.	.
=5	=5	=5	=5	=5
0r	2.d	4a	0r	2a]
.	.	4g	.	.
.	.	2.f	.	2a
.	4c	.	.	.
.	4d	.	.	1dd
.	4e	4g	.	.
.	[2f	4a	.	.
.	.	4f	.	.
=6	=6	=6	=6	=6
0r	2f]	1g	1r	1cc
.	2e	.	.	.
.	1f	1a	[1d	2.dd
.	.	.	.	4cc
=7	=7	=7	=7	=7
0r	2B-y	1b-y	2d]	4dd
.	.	.	.	4ee
.	2d	.	2d	1ff
.	1c	1cc	1g	.
.	.	.	.	2ee
=8	=8	=8	=8	=8
2r	0F	2a	2.f	2.ff
1A	.	2cc	.	.
.	.	.	4g	8eeL
.	.	.	.	8ddJ
.	.	2.cc	4a	4cc
.	.	.	4b-y	4b-y
2A	.	.	[2cc	4a
.	.	4b-y	.	4g
=9	=9	=9	=9	=9
1d	0r	2a	2cc]	2f
.	.	4g	2b-y	2.ff
.	.	4f	.	.
1c	.	1g	2.cc	.
.	.	.	.	8eeL
.	.	.	.	8ddJ
.	.	.	.	2ee
.	.	.	4b-y	.
=10	=10	=10	=10	=10
2.d	0r	1f	4a	2.ff
.	.	.	4g	.
.	.	.	2.f	.
4c	.	.	.	4ee
4d	.	1r	.	2dd
4e	.	.	4g	.
[2f	.	.	4a	4cc
.	.	.	4f	4b-y
=11	=11	=11	=11	=11
2f]	1c	1r	1g	1cc
2e	.	.	.	.
1f	1d	2r	1f	1a
.	.	2f	.	.
=12	=12	=12	=12	=12
1c	2e	1g	0r	1r
.	2c	.	.	.
1r	1f	2a	.	1cc
.	.	2f	.	.
=13	=13	=13	=13	=13
1r	2B-y	2b-y	1f	1dd
.	2d	2b-y	.	.
2r	1c	1cc	1g	2ee
[2c	.	.	.	2cc
=14	=14	=14	=14	=14
2c]	2F	0r	2a	2.ff
1d	2F	.	2f	.
.	.	.	.	4ee
.	1G	.	2b-y	2dd
2e	.	.	2b-y	2gg
=15	=15	=15	=15	=15
2c	2A	2r	1cc	2ee
2.f	2F	2c	.	2ff
.	2.B-y	1d	2r	2dd
4e	.	.	.	.
4d	.	.	[2b-y	[2ff
4c	4c	.	.	.
=16	=16	=16	=16	=16
2B-y	4d	2.f	2b-]	2ff]
.	4e	.	.	.
1d	2f	.	2a	4ee
.	.	4g	.	4dd
.	2d	4a	2f	2ff
.	.	4b-y	.	.
2c	2e	4cc	2g	[2ee
.	.	4a	.	.
=17	=17	=17	=17	=17
2B-y	2f	1b-y	1d	4ee]
.	.	.	.	4dd
2G	2g	.	.	1dd
1A	1e	2.a	2r	.
.	.	.	2c	2cc#i
.	.	4g	.	.
=18	=18	=18	=18	=18
0D	0d	4a	1.f	1dd
.	.	4g	.	.
.	.	4f	.	.
.	.	4e	.	.
.	.	2f	.	2r
.	.	4e	2f	2a
.	.	4d	.	.
=19	=19	=19	=19	=19
0A	0r	0c	2e	2.cc
.	.	.	2c	.
.	.	.	.	4cc
.	.	.	2e	2cc
.	.	.	2f	2a
=20	=20	=20	=20	=20
0r	2r	0r	2g	2b-y
.	2A	.	2e	2cc
.	2.d	.	4f	4dd
.	.	.	4e	4cc
.	.	.	4f	4dd
.	4d	.	4g	4ee
=21	=21	=21	=21	=21
1r	2d	2r	2a	2ff
.	2B-y	2d	4g	2dd
.	.	.	4f	.
2r	2c	2.g	2e	2ee
2G	2d	.	2d	[2gg
.	.	4g	.	.
=22	=22	=22	=22	=22
2.c	4e	1g	1c	4gg]
.	4d	.	.	4ff
.	4e	.	.	4ee
4c	4f	.	.	4dd
2c	2g	2e	1r	2cc
2A	2c	2f	.	[2ff
=23	=23	=23	=23	=23
2B-y	2r	2g	0r	2ff]
2c	2c	2.a	.	2ee
2.d	1f	.	.	1ff
.	.	4g	.	.
.	.	4f	.	.
4c	.	4e	.	.
=24	=24	=24	=24	=24
4B-y	2f	2d	2r	0r
4A	.	.	.	.
2.c	1e	4c	2g	.
.	.	4d	.	.
.	.	4e	2.cc	.
4B-y	.	4f	.	.
4A	2c	2g	.	.
4G	.	.	4dd	.
=25	=25	=25	=25	=25
1A	2e	1c	2cc	0r
.	2f	.	2a	.
[1G	2.g	1d	2b-y	.
.	.	.	4g	.
.	8fL	.	4a	.
.	8eJ	.	.	.
=26	=26	=26	=26	=26
2G]	2d	1g	4b-y	0r
.	.	.	4cc	.
2G	2d	.	2.dd	.
2F	4f	2a	.	.
.	4e	.	4cc	.
2A	4d	2f	[2cc	.
.	4c	.	.	.
=27	=27	=27	=27	=27
1G	1d	1.g	2cc]	0r
.	.	.	2bnXi	.
[1C	[1c	.	1cc	.
.	.	2e	.	.
=28	=28	=28	=28	=28
1C]	1c]	1e	1r	1.gg
1r	1r	1r	[1cc	.
.	.	.	.	2gg
=29	=29	=29	=29	=29
0r	2r	0r	2cc]	1ee
.	1A	.	2cc	.
.	.	.	1a	1cc
.	2A	.	.	.
=30	=30	=30	=30	=30
0r	1d	0r	1f	2.ff
.	.	.	.	4ee
.	1G	.	2.b-y	4dd
.	.	.	.	4cc
.	.	.	.	2dd
.	.	.	4a	.
=31	=31	=31	=31	=31
0r	2r	0r	4g	2b-y
.	.	.	4f	.
.	4c	.	2g	2.cc
.	4d	.	.	.
.	4e	.	4c	.
.	4f	.	4d	4b-y
.	[2g	.	4e	4g
.	.	.	4f	4a
=32	=32	=32	=32	=32
0r	4g]	0r	4g	4b-y
.	4f	.	4a	4cc
.	2d	.	2b-y	4dd
.	.	.	.	4b-y
.	2f	.	2a	4cc
.	.	.	.	4b-y
.	2g	.	[2g	4a
.	.	.	.	4g
=33	=33	=33	=33	=33
0r	1d	1r	2g]	1a
.	.	.	2f#i	.
.	1G	2r	[1g	[1g
.	.	[2g	.	.
=34	=34	=34	=34	=34
2r	1r	2g]	1g]	0g]
1c	.	2g	.	.
.	2r	2.e	1r	.
2c	[2c	.	.	.
.	.	4d	.	.
=35	=35	=35	=35	=35
2.A	2c]	2c	0r	0r
.	2c	4cc	.	.
4G	.	4b-y	.	.
4F	2c	4a	.	.
4E	.	4g	.	.
2F	2A	2a	.	.
=36	=36	=36	=36	=36
2D	1d	2f	0r	1r
2D	.	2b-y	.	.
2F	2c	2a	.	2r
2G	2B-y	[2g	.	[2dd
=37	=37	=37	=37	=37
1D	1A	2g]	1r	2dd]
.	.	2f	.	2ff
[1G	1G	[1g	2r	2ee
.	.	.	[2g	2dd
=38	=38	=38	=38	=38
1G]	0r	1g]	2g]	1gg
.	.	.	2b-y	.
1r	.	1r	2a	2ff
.	.	.	2g	2ee
=39	=39	=39	=39	=39
0r	0r	2r	1b-y	0dd
.	.	1d	.	.
.	.	.	1a	.
.	.	2f	.	.
=40	=40	=40	=40	=40
0r	0r	2e	2g	2r
.	.	2d	2f	2.dd
.	.	1g	4b-y	.
.	.	.	4a	4cc
.	.	.	4b-y	4dd
.	.	.	4g	4b-y
=41	=41	=41	=41	=41
0r	1r	2f	2a	4cc
.	.	.	.	4b-y
.	.	2e	1g	4a
.	.	.	.	4g
.	2r	[1d	.	1a
.	2d	.	2f#i	.
=42	=42	=42	=42	=42
2r	2B-y	0d]	1g	1g
1G	4G	.	.	.
.	4A	.	.	.
.	4B-y	.	1r	1dd
.	4c	.	.	.
2B-y	4d	.	.	.
.	4e	.	.	.
=43	=43	=43	=43	=43
2A	2f	0r	2r	2cc
2G	1g	.	1d	2b-y
1d	.	.	.	2.a
.	2f	.	2f	.
.	.	.	.	4b-y
=44	=44	=44	=44	=44
2c	1g	2r	2e	2cc
2B-y	.	2g	2d	2dd
2.A	2.c	2a	1a	2ff
.	.	[2cc	.	[2ee
4B-y	4d	.	.	.
=45	=45	=45	=45	=45
2c	2e	2cc]	2g	4ee]
.	.	.	.	4dd
2d	2f	4b-y	2f	1dd
.	.	4a	.	.
2G	2g	2b-y	1e	.
2A	2e	[2a	.	2cc#i
=46	=46	=46	=46	=46
1D	2f	4a]	2.d	0dd
.	.	4f	.	.
.	1d	2b-y	.	.
.	.	.	4e	.
1r	.	2a	4f	.
.	.	.	4g	.
.	2f	4g	[2a	.
.	.	4f	.	.
=47	=47	=47	=47	=47
1r	1e	2.g	4a]	0r
.	.	.	4g	.
.	.	.	1g	.
.	.	4a	.	.
2r	1d	2b-y	.	.
[2d	.	[2a	2f	.
=48	=48	=48	=48	=48
2d]	1G	4a]	1b-y	1r
.	.	4g	.	.
2B-y	.	1g	.	.
2c	1r	.	1a	2r
2d	.	2f#i	.	[2dd
=49	=49	=49	=49	=49
2G	0r	2g	2r	2dd]
2d	.	2.a	2d	2ff
2c	.	.	2e	2ee
.	.	4g	.	.
[2d	.	4f	4d	[2ff
.	.	4e	4e	.
=50	=50	=50	=50	=50
4d]	0r	2d	4f	4ff]
4c	.	.	4g	4ee
4B-y	.	1f	1a	4dd
4A	.	.	.	4cc
1B-y	.	.	.	1dd
.	.	4e	2g	.
.	.	4d	.	.
=51	=51	=51	=51	=51
0A	2r	2f	0a	2.cc
.	1c	1e	.	.
.	.	.	.	4dd
.	.	.	.	4ee
.	.	.	.	4cc
.	2A	2c	.	[2ff
=52	=52	=52	=52	=52
1r	2B-y	2d	1g	2ff]
.	2c	2e	.	2ee
2r	4F	1c	1a	1ff
.	4G	.	.	.
[2c	4A	.	.	.
.	4B-y	.	.	.
=53	=53	=53	=53	=53
2c]	4c	2r	2g	1r
.	4F	.	.	.
2A	1f	2cc	2f	.
2B-y	.	2b-y	1g	2r
2c	2e	2g	.	[2cc
=54	=54	=54	=54	=54
2F	1f	2.a	2f	2cc]
2.f	.	.	2.d	2dd
.	.	4g	.	.
.	1r	2a	.	1ff
4e	.	.	4e	.
2d	.	2b-y	2f	.
=55	=55	=55	=55	=55
2c	1r	2cc	2g	2ee
2B-y	.	2g	2d	1dd
1A	2r	[1a	1e	.
.	2c	.	.	2cc#i
=56	=56	=56	=56	=56
2r	2.f	1a]	[0dl	[0ddl
2d	.	.	.	.
.	4e	.	.	.
2.f	4d	2r	.	.
.	4c	.	.	.
.	[2f	[2a	.	.
4e	.	.	.	.
=57	=57	=57	=57	=57
4d	2f]	2a]	0d_	0dd_
4c	.	.	.	.
2d	2a	2f	.	.
1G	1g	1b-y	.	.
=58	=58	=58	=58	=58
0Dl	0fl	0al	0d]	0dd]
=59||	=59||	=59||	=59||	=59||
!!section: Secunda pars: Ego rogabo
!!!OMD: Secunda pars: Ego rogabo
0r	0r	1.f	0r	0r
.	.	2f	.	.
=60	=60	=60	=60	=60
0r	0r	2g	0r	0r
.	.	2f	.	.
.	.	1b-y	.	.
=61	=61	=61	=61	=61
0r	0r	2r	0r	1.cc
.	.	1a	.	.
.	.	2f	.	2cc
=62	=62	=62	=62	=62
0r	0r	2b-y	0r	2dd
.	.	2a	.	2cc
.	.	2f	.	1ff
.	.	[2a	.	.
=63	=63	=63	=63	=63
0r	1.c	2a]	0r	2r
.	.	4g	.	1ee
.	.	4f	.	.
.	.	2g	.	.
.	2c	[2a	.	2cc
=64	=64	=64	=64	=64
1r	2d	4a]	0r	2ff
.	.	4f	.	.
.	2c	2g	.	2ee
[1F	[1f	[1a	.	[1cc
=65	=65	=65	=65	=65
2F]	1f]	2a]	0r	2cc]
2F	.	2cc	.	4b-y
.	.	.	.	4a
2G	2r	2b-y	.	2b-y
2F	[2f	[2a	.	2cc
=66	=66	=66	=66	=66
1B-y	2f]	4a]	1r	1dd
.	.	8gL	.	.
.	.	8fJ	.	.
.	2d	2g	.	.
2r	2f	[1a	2r	[1cc
[2A	2e	.	[2c	.
=67	=67	=67	=67	=67
2A]	2c	1a]	2c]	1cc]
2F	2.f	.	2c	.
2B-y	.	1r	2d	1r
.	8eL	.	.	.
.	8dJ	.	.	.
2A	4e	.	2c	.
.	4f	.	.	.
=68	=68	=68	=68	=68
2.F	2d	0r	1f	1r
.	2.c	.	.	.
4G	.	.	.	.
4A	.	.	2r	[1cc
4B-y	4d	.	.	.
[2c	4e	.	[2e	.
.	4f	.	.	.
=69	=69	=69	=69	=69
2c]	2g	0r	2e]	2cc]
4B-y	1a	.	2c	2cc
4A	.	.	.	.
2B-y	.	.	2f	2dd
2c	2g	.	2e	2cc
=70	=70	=70	=70	=70
1F	2.a	1r	2.c	1ff
.	8gL	.	4d	.
.	8fJ	.	.	.
2r	1g	[1c	4e	2r
.	.	.	4f	.
2c	.	.	4g	[2ee
.	.	.	8fL	.
.	.	.	8gJ	.
=71	=71	=71	=71	=71
4A	1r	2c]	1a	2ee]
4B-y	.	.	.	.
4c	.	2c	.	2cc
4A	.	.	.	.
2B-y	2r	2d	2g	2ff
2c	[2c	2c	2g	2ee
=72	=72	=72	=72	=72
1F	2c]	1.f	2a	4cc
.	.	.	.	4dd
.	2A	.	1cc	4ee
.	.	.	.	4cc
1r	1d	.	.	4dd
.	.	.	.	4ee
.	.	2f	2b-y	[2ff
=73	=73	=73	=73	=73
2r	1c	2.g	1.cc	2ff]
1c	.	.	.	4ee
.	.	4f	.	4dd
.	1r	4g	.	4ee
.	.	4a	.	4ff
2B-y	.	2b-y	[2dd	[2gg
=74	=74	=74	=74	=74
1d	1r	2a	2dd]	4gg]
.	.	.	.	4ff
.	.	4g	2b-y	1ff
.	.	4f	.	.
1c	2r	1g	2.cc	.
.	2c	.	.	2ee
.	.	.	4b-y	.
=75	=75	=75	=75	=75
1F	2c	1f	4cc	[0ff
.	.	.	4b-y	.
.	2c	.	4a	.
.	.	.	4g	.
2r	2.f	2r	2.a	.
2F	.	2a	.	.
.	4e	.	4b-y	.
=76	=76	=76	=76	=76
2.F	4f	4a	1cc	1ff]
.	4g	4b-y	.	.
.	4a	4cc	.	.
4F	4f	4a	.	.
2B-y	2g	2b-y	1r	1r
2A	2a	2cc	.	.
=77	=77	=77	=77	=77
4B-y	1d	2f	0r	1r
4c	.	.	.	.
4d	.	2f	.	.
4B-y	.	.	.	.
2c	1r	2e	.	2r
2d	.	2d	.	2a
=78	=78	=78	=78	=78
1D	2r	4f	1f	2.a
.	.	4e	.	.
.	2f	4f	.	.
.	.	4g	.	4a
1r	2.f	1a	2.f	2dd
.	.	.	.	2cc
.	4e	.	4g	.
=79	=79	=79	=79	=79
0r	2d	2.f	4a	4dd
.	.	.	4g	4ee
.	2d	.	4a	4ff
.	.	4g	4b-y	4dd
.	2c	1a	2cc	2ee
.	2d	.	2a	2ff
=80	=80	=80	=80	=80
1r	4B-y	0r	2b-y	1dd
.	4c	.	.	.
.	4d	.	2b-y	.
.	4e	.	.	.
2r	2f	.	[1a	[1cc
[2F	[2A	.	.	.
=81	=81	=81	=81	=81
4F]	4A]	0r	0a]	0cc]
4G	4B-y	.	.	.
4A	4c	.	.	.
4B-y	4d	.	.	.
2c	2e	.	.	.
2A	2f	.	.	.
=82	=82	=82	=82	=82
2B-y	2.g	1r	0r	0r
2.c	.	.	.	.
.	4f	.	.	.
.	4e	2r	.	.
4B-y	4d	.	.	.
4A	[2f	[2A	.	.
4G	.	.	.	.
=83	=83	=83	=83	=83
4F	2f]	4A]	0r	0r
4G	.	4B-y	.	.
1A	4e	4c	.	.
.	4d	4d	.	.
.	4c	2e	.	.
.	4A	.	.	.
4G	[2d	2f	.	.
4F	.	.	.	.
=84	=84	=84	=84	=84
1.E	2d]	2.g	0r	1r
.	4c	.	.	.
.	4B-y	4f	.	.
.	2c	4e	.	2r
.	.	4d	.	.
4D	2d	[2f	.	[2a
4E	.	.	.	.
=85	=85	=85	=85	=85
4F	1A	2f]	0r	4a]
4G	.	.	.	4b-y
1A	.	4e	.	4cc
.	.	4d	.	4dd
.	2r	4c	.	2ee
.	.	4A	.	.
4G	[2A	[2d	.	2ff
4F	.	.	.	.
=86	=86	=86	=86	=86
1.E	2A]	2d]	2r	2.gg
.	4G	4c	1g	.
.	4F	4B-y	.	4ff
.	2G	2c	.	4ee
.	.	.	.	4dd
2D	2B-y	2d	[2f	[2ff
=87	=87	=87	=87	=87
2.F	1A	2A	4f]	2ff]
.	.	.	4g	.
.	.	1f	1a	4ee
4G	.	.	.	4dd
2A	1r	.	.	4cc
.	.	.	.	4a
2B-y	.	4e	2g	[2dd
.	.	4d	.	.
=88	=88	=88	=88	=88
1A	2r	1e	1.a	2dd]
.	2A	.	.	2cc#i
1D	4f	[1d	.	[1dd
.	4e	.	.	.
.	4f	.	2d	.
.	4g	.	.	.
=89	=89	=89	=89	=89
2r	2a	1d]	4f	0dd]
.	.	.	4e	.
2.d	2.f	.	4f	.
.	.	.	4g	.
.	.	1r	2a	.
4c	4e	.	.	.
4B-y	4d	.	[2b-y	.
4A	4c	.	.	.
=90	=90	=90	=90	=90
1G	4B-y	0r	2b-]	1r
.	4c	.	.	.
.	1d	.	4a	.
.	.	.	4g	.
2F	.	.	4a	2r
.	.	.	4g	.
2G	4c	.	[2g	[2dd
.	4B-y	.	.	.
=91	=91	=91	=91	=91
1D	1A	1r	2g]	2dd]
.	.	.	2f#i	2ff
[1G	1G	2r	[1g	2ee
.	.	[2g	.	2dd
=92	=92	=92	=92	=92
1G]	0r	2g]	1g]	1gg
.	.	2b-y	.	.
1r	.	2a	1r	2ff
.	.	2g	.	2ee
=93	=93	=93	=93	=93
0r	0r	1b-y	2r	0dd
.	.	.	1d	.
.	.	1a	.	.
.	.	.	2f	.
=94	=94	=94	=94	=94
0r	0r	2g	2e	2r
.	.	2f	2d	2.dd
.	.	4b-y	1g	.
.	.	4a	.	4cc
.	.	4b-y	.	4dd
.	.	4g	.	4b-y
=95	=95	=95	=95	=95
0r	1r	2a	2f	4cc
.	.	.	.	4b-y
.	.	1g	2e	4a
.	.	.	.	4g
.	2r	.	[1d	1a
.	2d	2f#i	.	.
=96	=96	=96	=96	=96
2r	2B-y	1g	0d]	1g
1G	4G	.	.	.
.	4A	.	.	.
.	4B-y	1r	.	1dd
.	4c	.	.	.
2B-y	4d	.	.	.
.	4e	.	.	.
=97	=97	=97	=97	=97
2A	2f	2r	0r	2cc
2G	1g	1d	.	2b-y
1d	.	.	.	2.a
.	2f	2f	.	.
.	.	.	.	4b-y
=98	=98	=98	=98	=98
2c	1g	2e	2r	2cc
2B-y	.	2d	2g	2dd
2.A	2.c	1a	2a	2ff
.	.	.	2cc	[2ee
4B-y	4d	.	.	.
=99	=99	=99	=99	=99
2c	2e	2g	2cc	4ee]
.	.	.	.	4dd
2d	2f	2f	4b-y	1dd
.	.	.	4a	.
2G	2g	1e	2b-y	.
2A	2e	.	[2a	2cc#i
=100	=100	=100	=100	=100
1D	2f	2.d	4a]	0dd
.	.	.	4f	.
.	1d	.	2b-y	.
.	.	4e	.	.
1r	.	4f	2a	.
.	.	4g	.	.
.	2f	[2a	4g	.
.	.	.	4f	.
=101	=101	=101	=101	=101
1r	1e	4a]	2.g	0r
.	.	4g	.	.
.	.	1g	.	.
.	.	.	4a	.
2r	1d	.	2b-y	.
[2d	.	2f	[2a	.
=102	=102	=102	=102	=102
2d]	1G	1b-y	4a]	1r
.	.	.	4g	.
2B-y	.	.	1g	.
2c	1r	1a	.	2r
2d	.	.	2f#i	[2dd
=103	=103	=103	=103	=103
2G	0r	2r	2g	2dd]
2d	.	2d	2.a	2ff
2c	.	2e	.	2ee
.	.	.	4g	.
[2d	.	4d	4f	[2ff
.	.	4e	4e	.
=104	=104	=104	=104	=104
4d]	0r	4f	2d	4ff]
4c	.	4g	.	4ee
4B-y	.	1a	1f	4dd
4A	.	.	.	4cc
1B-y	.	.	.	1dd
.	.	2g	4e	.
.	.	.	4d	.
=105	=105	=105	=105	=105
0A	2r	0a	2f	2.cc
.	1c	.	1e	.
.	.	.	.	4dd
.	.	.	.	4ee
.	.	.	.	4cc
.	2A	.	2c	[2ff
=106	=106	=106	=106	=106
1r	2B-y	1g	2d	2ff]
.	2c	.	2e	2ee
2r	4F	1a	1c	1ff
.	4G	.	.	.
[2c	4A	.	.	.
.	4B-y	.	.	.
=107	=107	=107	=107	=107
2c]	4c	2g	2r	1r
.	4F	.	.	.
2A	1f	2f	2.cc	.
2B-y	.	1g	.	2r
.	.	.	4b-y	.
2c	2e	.	2g	2cc
=108	=108	=108	=108	=108
2F	1f	2f	2.a	2cc
2.f	.	2.d	.	2dd
.	.	.	4g	.
.	1r	.	2a	1ff
4e	.	4e	.	.
2d	.	2f	2b-y	.
=109	=109	=109	=109	=109
2c	1r	2g	2cc	2ee
2B-y	.	2d	2g	1dd
1A	2r	1e	[1a	.
.	2c	.	.	2cc#i
=110	=110	=110	=110	=110
2r	2.f	1d	0a]	0dd
2d	.	.	.	.
.	4e	.	.	.
2.f	4d	2r	.	.
.	4c	.	.	.
.	[2f	4d	.	.
4e	.	4e	.	.
=111	=111	=111	=111	=111
4d	4f]	4f	2r	2r
4c	4e	4d	.	.
4B-y	4d	1g	1b-y	2.dd
4A	4c	.	.	.
2G	2.d	.	.	.
.	.	.	.	4ee
2F	.	2a	2a	2ff
.	4c	.	.	.
=112	=112	=112	=112	=112
2G	4B-y	2b-y	2g	2dd
.	4A	.	.	.
2D	2.d	1a	2.f	1ff
2.F	.	.	.	.
.	4c	.	4g	.
.	[2A	4g	[2a	4ee
4G	.	4f	.	4dd
=113	=113	=113	=113	=113
[0A;	4A]	2e	2a]	[0cc;
.	4B-y	.	.	.
.	1c	2f	4g	.
.	.	.	4f	.
.	.	2c	2e	.
.	2F	[2f	2A	.
=114	=114	=114	=114	=114
0A]	4F	2f]	0a;	0cc]
.	4G	.	.	.
.	4A	4e	.	.
.	4B-y	4d	.	.
.	1c;	1e;	.	.
=115	=115	=115	=115	=115
0Dl	0Al	0dl	0fl	0ddl
==	==	==	==	==
*-	*-	*-	*-	*-
!!!system-decoration: s1,s2,s3,s4,s5
!!!RDF**kern: i = editorial accidental
!!!RDF**kern: l = terminal long
!!!ENC: Janosch Umbreit
!!!END: 2026/02/20
!!!EED: Benjamin Ory
!!!EEV: 2026/02/23
!!!YEC: Copyright 2026 Benjamin Ory, All Rights Reserved
!!!ONB: Translated from MusicXML on 2026/02/23
